X: 1
T: Drowsy Maggie
C: trad.
O: arr. by Tom Morley
R: reel
S: Fiddle Hell Online 2021-11-04
Z: 2022 John Chambers <jc:trillian.mit.edu>
M: 4/4
L: 1/8
K: Em
|:\
"Em"vE2(uBE) dEBE | E2(BE) "D"A(FDF) | "Em"E2(BE) dEBE | "C"(BA)Bc "D"(dA)FD |
"Em"vE2(uBE) dEBE | E2(BE) "D"A(FDF) | "Em"E2(BE) dEBE | (BA)Bc "D"(dA)FA ||
"D"vd2fd "A"c2e(uc | "D"de)fg  afge  | d2fd "A"c2e(uc | "G"BA)Bc dAFA |
"D" d2fd "A"c2e(uc | "D"de)fg a(fge) | afge fde(uc | "D"BA)Bc DAFD :|["End" "Em"E8 |]
